X: 30272
M: 3/8
L: 1/8
K: D
dcB | BAF | AGE | BAF |\
dcB | BAF | AGE | D2 :|\
|: F |\
dcB | BAF | AGE | D2 :|


